!!!COM: Schiørring, Niels
!!!CDT: 1743-1798
!!!OPR@@DA: Choral-Bog
!!!ONM: 27
!!!OTL@@DA: Helligſte Jeſu, Helligheds Kilde
**kern	**fb	**kern	**kern	**kern	**kern	**kern	**kern	**kern
*part6	*part6	*part6	*part5	*part5	*part4	*part3	*part2	*part1
*staff8	*	*staff7	*staff6	*staff5	*staff4	*staff3	*staff2	*staff1
*clefF4	*	*clefC1	*clefF4	*clefC1	*clefF4	*clefC4	*clefC3	*clefC1
*mclefF4	*	*mclefG2	*mclefF4	*mclefG2	*mclefF4	*mclefGv2	*mclefG2	*mclefG2
*k[]	*	*k[]	*k[]	*k[]	*k[]	*k[]	*k[]	*k[]
*M4/4	*	*M4/4	*M4/4	*M4/4	*M4/4	*M4/4	*M4/4	*M4/4
*met(c)	*	*met(c)	*met(c)	*met(c)	*met(c)	*met(c)	*met(c)	*met(c)
*MM180	*	*MM180	*MM180	*MM180	*MM180	*MM180	*MM180	*MM180
*	*above	*	*	*	*	*	*	*
*	*slash	*	*	*	*	*	*	*
=1	=1	=1	=1	=1	=1	=1	=1	=1
*	*	*	*^	*^	*	*	*	*
2C	.	2c	2E	2C	2c	2G	2C	2E	2G	2c
2C	.	2e	2G	2C	2e	2c	2C	2G	2c	2e
=2	=2	=2	=2	=2	=2	=2	=2	=2	=2	=2
2BB	6	2g	2B	2BB	2g	2d	2BB	2G	2d	2g
2F	2	2g	2B	2F	2g	2d	2F	2B	2d	2g
=3	=3	=3	=3	=3	=3	=3	=3	=3	=3	=3
2E	6	2g	2c	2E	2g	2c	2E	2c	2e	2g
2D	6 4	2g	[2G	2D	2g	2B	2D	2B	[2g	2g
=4	=4	=4	=4	=4	=4	=4	=4	=4	=4	=4
2C	6 5	1a	2G]	2C	1a	2e	(2C	(2e	(2g]	1a
2D	#	.	4F#X	2D	.	2d	2D)	2d)	2f#X)	.
.	.	.	4c	.	.	.	.	.	.	.
=5	=5	=5	=5	=5	=5	=5	=5	=5	=5	=5
2GG	.	2g	2ryy	2GG	2B	2d	2GG	2B	2g	2g
4G	.	2g	2B	4G	2g	2d	(4G	2B	2d	2g
4F	.	.	.	4Fni	.	.	4F)	.	.	.
=6	=6	=6	=6	=6	=6	=6	=6	=6	=6	=6
2E	6	2cc	2c	2E	2cc	2g	2E	2c	2g	2cc
2F	2	2g	2B	2F	2g	2d	2F	2B	2d	2g
=7	=7	=7	=7	=7	=7	=7	=7	=7	=7	=7
2E	6	2cc	2c	2E	2cc	2g	2E	2c	2g	2cc
2C	.	2ee	2ryy	2C	2g	2cc	2C	2c	2g	2ee
=8	=8	=8	=8	=8	=8	=8	=8	=8	=8	=8
2G	.	2dd	1ryy	2G	2g	2b	2G	2B	2g	2dd
4A	.	2cc	.	4A	2e	2a	(4A	2e	2e	2cc
4G	.	.	.	4G	.	.	4G)	.	.	.
=9	=9	=9	=9	=9	=9	=9	=9	=9	=9	=9
2F#X	6	1dd	1ryy	2F#X	2d	1a	(2F#X	(2d	1a	1dd
[2c	#4|	.	.	[2c	2f#X	.	[2c)	2f#X)	.	.
=10	=10	=10	=10	=10	=10	=10	=10	=10	=10	=10
4c]	5 2	2g	1ryy	4c]	2d	2g	(4c]	2d	2g	2g
4B	6	.	.	4B	.	.	4B)	.	.	.
4c	.	2g	.	4c	2c	2e	(4c	2c	2e	2g
4B	.	.	.	4B	.	.	4B)	.	.	.
=11	=11	=11	=11	=11	=11	=11	=11	=11	=11	=11
2A	.	2cc	2c	2A	2cc	2e	2A	2c	2e	2cc
2c	.	2g	2c	2c	2g	2e	2c	2c	2e	2g
=12	=12	=12	=12	=12	=12	=12	=12	=12	=12	=12
2F	.	2a	2c	2F	2a	2f	2F	2c	2f	2a
2A	.	2e	2c	2A	2e	2c	2A	2c	2e	2e
=13	=13	=13	=13	=13	=13	=13	=13	=13	=13	=13
2D	.	2f	2A	2D	2f	2d	2D	2A	2d	2f
2G	.	2d	2G	2G	2d	2B	2G	(4G	2B	2d
.	.	.	.	.	.	.	.	4F)	.	.
=14	=14	=14	=14	=14	=14	=14	=14	=14	=14	=14
1C	.	1c	1E	1C	1c	1G	1C	1E	1c	1c
=15:|!	=15:|!	=15:|!	=15:|!	=15:|!	=15:|!	=15:|!	=15:|!	=15:|!	=15:|!	=15:|!
2r	.	2r	2r	2r	2r	2r	2r	2r	2r	2r
2C	.	2g	2E	2C	2g	2c	2C	2c	2e	2g
=16	=16	=16	=16	=16	=16	=16	=16	=16	=16	=16
2BB	6	2g	2G	2BB	2g	2d	2BB	2d	2d	2g
2GG	7	2f	2ryy	2GG	2B	2d	2GG	2d	2B	2f
=17	=17	=17	=17	=17	=17	=17	=17	=17	=17	=17
2C	.	2e	2G	2C	2e	2c	2C	2G	2c	2e
2GG#X	6	2d	2E	2GG#X	2d	2B	2GG#X	2E	2B	2d
=18	=18	=18	=18	=18	=18	=18	=18	=18	=18	=18
2AA	6	2c	2E	2AA	2c	2A	2AA	2E	2c	2c
2BB	.	2gni	2Gni	2BB	2gni	2d	2BB	2G	2d	2g
=19	=19	=19	=19	=19	=19	=19	=19	=19	=19	=19
2C	.	2g	2G	2C	2g	2e	2C	2G	2e	2g
2D	.	2f	2B	2D	2f	2d	2D	2B	2d	2f
=20	=20	=20	=20	=20	=20	=20	=20	=20	=20	=20
4E	.	2e	2G	4E	2e	2c	(4E	2G	2c	2e
4F	.	.	.	4F	.	.	4F)	.	.	.
2G	.	2d	2G	2G	2d	2B	2G	2G	2B	2d
=21	=21	=21	=21	=21	=21	=21	=21	=21	=21	=21
1C	.	1c	1E	1C	1c	1G	1C	1E	1c	1c
=22	=22	=22	=22	=22	=22	=22	=22	=22	=22	=22
2GG	.	2d	1G	2GG	2d	2B	2GG	2G	(4B	2d
.	.	.	.	.	.	.	.	.	2d)	.
2GG#X	5	2e	.	2GG#X	2e	2B	2GG#X	2B	.	2e
.	.	.	.	.	.	.	.	.	4d	.
=23	=23	=23	=23	=23	=23	=23	=23	=23	=23	=23
2AA	6	1f	2C	2AA	1f	2c	(2AA	(2A	(2c	1f
2BB	5	.	2Gni	2BB	.	2d	2BB)	2G)	2d)	.
=24	=24	=24	=24	=24	=24	=24	=24	=24	=24	=24
2C	.	2e	2G	2C	2e	2c	2C	2G	2c	2e
[2c	.	2g	2ryy	[2c	2e	2e	[2c	2e	2e	2g
=25	=25	=25	=25	=25	=25	=25	=25	=25	=25	=25
2c]	#4|	2a	2ryy	2c]	2d	2f#X	2c]	2d	2f#X	2a
2B	#6\	2b	2d	2B	2b	2g#X	2B	2d	2g#X	2b
=26	=26	=26	=26	=26	=26	=26	=26	=26	=26	=26
2A	.	2cc	2e	2A	2cc	2a	2A	2e	2a	2cc
2A	.	2cc	2e	2A	2cc	2a	2A	2e	2a	2cc
=27	=27	=27	=27	=27	=27	=27	=27	=27	=27	=27
4E	6	2ee	2.c	4E	2ee	4g	(4E	2.c	(4g	2ee
4F#X	7 5	.	.	4F#X	.	2a	4F#X)	.	2a)	.
2G	9 4	2dd	.	2G	2dd	.	2G	.	.	2dd
.	8 3	.	4B	.	.	8gL	.	4B	(8gL	.
.	7	.	.	.	.	8fniJ	.	.	8fJ)	.
=28	=28	=28	=28	=28	=28	=28	=28	=28	=28	=28
*	*	*	*	*	*	*^	*	*	*	*
2C	.	2cc	2c	2C	2cc	2e	2g/	2C	2G	2e	2cc
*	*	*	*	*	*	*v	*v	*	*	*	*
2BB	6	2g	2ryy	2BB	2d	2d	2BB	2d	2d	2g
=29	=29	=29	=29	=29	=29	=29	=29	=29	=29	=29
2AA	.	2cc	1ryy	2AA	2c	2e	2AA	2c	2e	2cc
2C	.	2g	.	2C	2c	2e	2C	2c	2e	2g
=30	=30	=30	=30	=30	=30	=30	=30	=30	=30	=30
*	*	*	*	*	*	*	*^	*	*	*
2FF	.	2a	1ryy	2FF	2A	2c	2F	2FF	2c	2f	2a
2AA	.	2e	.	2AA	2A	2c	2A	2AA	2c	2e	2e
=31	=31	=31	=31	=31	=31	=31	=31	=31	=31	=31	=31
2DD	.	2f	2ryy	2DD	2A	2d	2D	2DD	2A	2d	2f
2GG	.	2d	2G	2GG	2d	2B	2G	2GG	(4G	2B	2d
.	.	.	.	.	.	.	.	.	4F)	.	.
*	*	*	*	*	*	*	*v	*v	*	*	*
=32	=32	=32	=32	=32	=32	=32	=32	=32	=32	=32
1C	.	1c	1E	1C	1c	1G	1C	1E	1c	1c
*	*	*	*v	*v	*	*	*	*	*	*
*	*	*	*	*v	*v	*	*	*	*
==	==	==	==	==	==	==	==	==
*-	*-	*-	*-	*-	*-	*-	*-	*-
!!!system-decoration: {(s1,s2,s3,s4)}{(s5,s6)}{(s7,s8)}
!!!RDF**kern: i = editorial accidental, paren
!!!RDF**kern: > = above
!!!RDF**kern: < = below
!!!AGN: chorale
!!!EED: Derek Remeš
!!!EED2: Victor Phan
!!!END: 2023/11/28
!!!ENC: Wolfgang Drescher
!!!EEV: 2023/12/12
!!!title: @{ONM}. @{OTL}
!!!verovio: mnumInterval 1